X:1
T:Title
%%score 1 2 3
L:1/8
M:3/2
K:C
V:1 treble nm="Part_1"
V:2 treble-8 nm="Part_2"
V:3 treble-8 nm="Part_3"
V:1
 F8 G2 A2 | _B6 A2 G4 | _B8 B2 A2 | ^F6 E2 G4 | G8 F4 | F2 D2 C3 F E2 D2 | F12 || z12 | z4 z4 F4 | %9
 D6 E2 F4 | G4 F2 E2 D4 | G2 F4 C2 F2 D2 | C4 z4 F4 | G6 F2 A4 | D2 G4 F2 E2 D2 | F12 | z12 | %17
 z4 z4 F4 | G12- | G4 A8 | _B4 A4 G2 F2 | F4 E6 D2 | F8 z4 | A4 =B6 A2 | c4 c2 B2 A2 G2 | F8 G4 | %26
 A8 _B2 A2 | G6 G2 F2 E2 | G6 E2 F4 | F2 D4 F2 D2 E2 | F12 || F8 E4 | D6 E2 F4 | G2 A2 _B6 A2 | %34
 A4 G6 F2 | A4 =B6 A2 | c4 z4 A4 | _B2 A2 G6 F2 | F8 G4 | F2 A2 G2 E2 F4 | D4 E6 D2 | F12 | %42
 z4 z4 F4 | A6 B2 c4 | c6 B2 A4 | ^c8 c4 | d2 c2 A2 c2 B2 A2 | c4 z4 F4 | A6 B2 c4 | c6 B2 A4 | %50
 ^c8 c4 | d2 c2 A2 c2 B2 A2 | c4 z4 B4 | c6 B2 A4 | c3 B A2 F2 G3 A | F8 z4 | G8 A4 | %57
 _B2 A2 G4 F2 E2 | G6 E2 F2 A2 | G2 F4 D2 E4 | F12 | F4 A8 | c8 c4- | c4 A8 | c4 z4 z4 | %65
 A6 ^F2 G4 | A6 c2 B2 A2 | c4 G4 z4 | F2 G2 _B6 A2 | A4 G6 F2 | A4 G2 F2 D4 | E4 C4 z2 c2 | %72
 A4 G2 c2 B2 AB | c12 |[M:6/4] F6 A4 B2 | c4 F2 G4 A2 | _B2 AF G2 F6 | z2 z2 GA _B3 A F2 | %78
 F4 E4 D4 | FE D3 B,CD EF E>D | F12 |[M:3/2] c12 | c8 _B4 | A4 _B6 A2 | c4 _B2 A4 G2 | F4 z4 G4 | %86
 A4 _B6 A2 | ^F4 G6 =F2 | _B2 A2 F2 A2 G2 E2 | F2 D2 C4 D2 E2 | F3 G C2 F2 E2 DE | F12 | %92
[M:2/2] F6 E2 | D4 F4 | z4 F4 | G6 F2 | E2 F4 F2 | E2 D2 F4 | z4 C4 | F8 | _B2 A2 G4- | G2 F2 E4 | %102
 F4 z4 | F6 E2 | D4 C4- | C2 D2 E4 | F4 G4- | G2 E2 D4- | D2 G2 F2 E2 | G4 z4 | A8 | D4 C4 | %112
 E2 F4 E2 | G6 FE | D2 F2 E3 D | F8 |[M:3/2] z4 z4 F4 | D8 C4 | F8 F4 | G4 A2 F4 G2 | %120
 _B2 A4 F2 G4 | F4 z4 A4 | A6 G2 F4 | z4 F4 G4 | G6 F2 F4 | F2 E2 D4 E4 | F12 | D12 | F8 E4 | %129
 G8 G4 | F4 E4 D2 C2 | C6 C2 B,2 A,2 | C12 | z4 z4 F4 | F6 D2 C4 | F2 G2 A6 G2 | G6 F2 F2 E2 | %137
 G6 c2 B2 A2 | c8 z4 | c4 c4 d4 | c4 _B6 A2 | A6 G2 A2 F2 | A4 z4 F2 G2 | A6 F2 G4 | A4 G6 F2 | %145
 F2 G2 _B4 A2 G2 | F4 E6 D2 | F12 |[M:6/2] !fermata!F8 !fermata!E8 F8 |] %149
V:2
[K:F] F8 E2 F2 | G4 B2 c4 B2 | G6 F2 D4 | A8 G4- | G2 E2 G4 D4 | F4 A2 F2 G4 | F12 ||[K:C] z12 | %8
 z4 z4 F4 | G8 D4 | C8 D4 | E4 F6 G2 | A6 G2 F4 | E6 F2 D4 | G4 E2 A2 G4 | F12 | z12 | z4 z4 F4 | %18
 E8 C4- | C4 ^F8 | G4 F4 _B4 | A4 G8 | F4 A4 =B4 | c4 e8 | c12 | F8 c2 B2 | A4 F4 G2 A2 | _B4 A8 | %28
 G4 c4 F4- | F4 G8 | F12 ||[K:F] B8 c4 | d4 B2 G2 A4 | G4 d8 | c4 B8 | A4 d8 | c8 d4- | d4 e6 d2 | %38
 f4 d4 c2 B2 | A4 c4 B2 F2 | B4 A4 G4 | F12 | z4 z4 F4 | F8 A4 | c8 d4 | e4 ^c2 f4 e2 | d12 | %47
 c8 d2 B2 | A8 F4- | F4 c4 d4 | e4 ^c2 f2 e4 | f8 d4 | c4 A2 F2 G4 | F2 A4 G2 c2 A2 | F8 E4 | %55
 F4 z4 A4 | B4 G4 F2 c2 | d2 c2 B2 G2 A4 | G8 F4 | B4 A2 F2 G4 | F12 | F8 A4- | A4 c8 | c8 A4- | %64
 A4 c8 | d8 e4 | f4 d8 | c8 z4 | d8 d4 | c4 B8 | A4 =B8 | c4 g6 e2 | f4 e2 c2 d4 | c12 | %74
[M:6/4] F6- F4 G2 | A4 d2 c3 B A2 | G2 A2 B2 F6 | c6 d6 | A4 G3 c G4 | F2 B4 A2 G4 | F12 | %81
[M:3/2] c8 A4 | F8 G4 | A4 d8 | c8 c4 | F4 z4 E4 | F4 G8 | A4 G8 | D4 F4 G4 | F4 C4 z2 c2 | %90
 B4 A4 G4 | F12 |[M:2/2] F8 | F4 F4- | F4 A4 | B6 A2 | G4 A4 | G4 F4 | C4 E4 | F4 A4 | d2 c2 B4 | %101
 G2 A2 G4 | F4 z4 | A6 G2 | F4 E4- | E2 F2 G4 | F4 B4 | G4 F4- | F2 B2 A4 | G4 c2 B2 | A8 | F4 E4 | %112
 G4 A4 | G8 | F4 G4 | F8 |[M:3/2] z4 z4 F4 | G8 A4 | F4 B4 A4 | G4 F4 D2 E2 | D8 E4 | F4 z4 F4 | %122
 A2 d2 c2 B2 d4 | c2 B4 A2 G4 | B8 A4 | F4 G8 | F12 | D12 | d8 A4 | G8 E4 | D4 G4 F4 | E4 D8 | %132
 C8 F4- | F4 E4 D4 | d8 e4 | d8 c4 | B4 A8 | G4 c2 e2 d4 | c8 G4 | A8 B4 | A4 d8 | c4 B8 | A8 B4 | %143
 A8 E4 | D4 G8 | D8 F2 E2 | A4 G8 | F12 |[M:6/2] !fermata!F8 !fermata!G8 F8 |] %149
V:3
 c4 d4 e2 d2- | d4 G2 A2 E4 | z2 d2 _B2 c2 d4 | c2 de c2 Bc d4 | e4 d2 cB A4 | D4 F2 c2 B4 | c12 || %7
 z12 | z4 z4 c4 | B8 A2 B2 | c8 B2 A2 | G2 B2 A4 d2 B2 | c4 e4 d3 c | e2 B2 c4 d4 | B2 e4 c4 B2 | %15
 c12 | z12 | z4 z4 c2 d2 | e4 B4 c4- | c12 | _B4 c4 G2 D2 | F4 C8 | c4 A2 Bc d4 | A4 G8 | C8 C4 | %25
 c8 e2 d2 | c8 B2 c2 | d4 z4 D4 | E8 D4 | c2 A2 B6 A2 | c12 || z12 | z12 | z12 | z12 | z12 | z12 | %37
 z12 | z12 | z12 | z12 | z12 | z4 z4 c4 | A8 F4 | C4 E4 F4 | E4 A8 | D4 F4 G4 | C4 F4 D4 | %48
 F6 D2 A4 | c4 e4 f4 | ^c4 A8 | F8 G4 | C4 c2 f2 e3 d | f4 c2 d2 e4 | f6 d2 c4 | d3 c A4 c4 | %56
 G2 d4 B2 c3 A | G2 A2 d4 c4 | d4 z4 D4- | D4 F4 C4 | c12 | z12 | z12 | z12 | z12 | z12 | z12 | %67
 z12 | z12 | z12 | z12 | z12 | z12 | z12 |[M:6/4] c6 A4 G2 | F4 D2 E4 F2 | G2 FD G2 c4 A2 | %77
 F2 E4 D6 | c4 BG A2 B4 | c2 G4 F2 C2 B2 | c12 |[M:3/2] C4 F4 c4 | z2 c2 A4 G3 E | F4 D8 | %84
 A4 E2 F2 C4 | c8 G4 | D4 d8 | ^c4 d4 _B4 | A8 _B2 G2 | A4 G4 F2 C2 | D2 E2 F4 C4 | c12 | %92
[M:2/2] c6 B2 | A4 c4 | z4 c4 | d6 c2 | B2 c4 c2 | B2 A2 c4 | z4 G4 | c8 | f2 e2 d4- | d2 c2 B4 | %102
 c4 z4 | c6 B2 | A4 G4- | G2 A2 B4 | c4 d4- | d2 B2 A4- | A2 d2 c2 B2 | d4 z4 | e8 | A4 G4 | %112
 B2 c4 B2 | d6 cB | A2 c2 B3 A | c8 |[M:3/2] z4 z4 c4 | B8 e4 | d8 c4 | d6 A2 B2 c2 | %120
 d4 z2 B2 c2 B2 | A4 F4 D4 | F4 E4 D4 | F2 G2 D4 d4 | G4 d4 D4 | A2 c2 B6 A2 | c12 | A12 | D8 c4 | %129
 d2 e4 d2 c2 B2 | d4 z2 B2 A4 | G6 F2 E4 | G8 A4- | A2 d2 c2 B2 d4 | D8 A4 | D8 F2 E2 | G4 D4 c4 | %137
 d4 z2 c2 G4 | C8 E4 | F8 D4 | F4 G4 D4 | A4 E8 | e8 d4 | c8 B2 c2 | d4 B8 | A4 d4 c4- | c4 B8 | %147
 c12 |[M:6/2] !fermata!c8 !fermata!B8 c8 |] %149

